svgs/thin/right-from-bracket.svg

<svg xmlns="http://www.w3.org/2000/svg" viewBox="0 0 512 512"><!--! Font Awesome Pro 6.0.0-alpha3 by @fontawesome - https://fontawesome.com License - https://fontawesome.com/license (Commercial License) --><path d="M40 480h80C124.4 480 128 476.4 128 472S124.4 464 120 464h-80c-13.23 0-24-10.77-24-24V72c0-13.23 10.77-24 24-24h80C124.4 48 128 44.42 128 40S124.4 32 120 32h-80C17.94 32 0 49.94 0 72v368C0 462.1 17.94 480 40 480zM502.6 233.4l-128-128c-9.156-9.156-22.91-11.91-34.88-6.938C327.8 103.4 320 115.1 320 128l.0918 63.1L160 192C142.3 192 128 206.3 128 224v64c0 17.67 14.33 32 32 32l160.1-.001L320 384c0 12.94 7.797 24.62 19.75 29.56c11.97 4.969 25.72 2.219 34.88-6.938l128-128C508.9 272.4 512 264.2 512 256S508.9 239.6 502.6 233.4zM491.3 267.3l-128 128c-4.596 4.598-11.44 5.961-17.45 3.463C339.9 396.3 336 390.5 336 384V304H160C151.2 304 144 296.8 144 288V224c0-8.822 7.178-16 16-16h176V128c0-6.502 3.869-12.3 9.885-14.79c5.988-2.486 12.83-1.123 17.43 3.475l128 128C494.3 247.7 496 251.7 496 256S494.3 264.3 491.3 267.3z"/></svg>

<svg xmlns="http://www.w3.org/2000/svg" viewBox="0 0 512 512"><!-- Font Awesome Pro 6.0.0-alpha2 by @fontawesome - https://fontawesome.com License - https://fontawesome.com/license (Commercial License) --><path d="M40 480H120C124.422 480 128 476.422 128 472S124.422 464 120 464H40C26.766 464 16 453.234 16 440V72C16 58.766 26.766 48 40 48H120C124.422 48 128 44.422 128 40S124.422 32 120 32H40C17.938 32 0 49.938 0 72V440C0 462.062 17.938 480 40 480ZM502.625 233.375L374.625 105.375C365.469 96.219 351.719 93.469 339.75 98.438C327.797 103.375 320 115.062 320 128V192H160C142.326 192 128 206.326 128 224V288C128 305.672 142.326 320 160 320H320V384C320 396.938 327.797 408.625 339.75 413.562C351.719 418.531 365.469 415.781 374.625 406.625L502.625 278.625C508.875 272.375 512 264.188 512 256S508.875 239.625 502.625 233.375ZM491.311 267.311L363.311 395.311C358.715 399.908 351.873 401.271 345.857 398.773C339.869 396.301 336 390.502 336 384V304H160C151.178 304 144 296.822 144 288V224C144 215.178 151.178 208 160 208H336V128C336 121.498 339.869 115.699 345.885 113.215C351.873 110.729 358.715 112.092 363.311 116.689L491.311 244.689C494.334 247.713 496 251.729 496 256S494.334 264.287 491.311 267.311Z"/></svg>
